X: 145122
Q: "Hornpipe."
M: 2/4
L: 1/16
K: D
uA2 |\
d2d2 cecA | d2fd A2ef |\
g2gf e2ed | cedB ABcA |\
d2d2 cecA | d2fd A2ef |\
gfge cABc | d2z2 d2 |]
(uAG) |\
cged cABc | d2f2d2 |]


